assets/Female sign/Flat/female_sign_flat.svg

<svg width="32" height="32" viewBox="0 0 32 32" fill="none" xmlns="http://www.w3.org/2000/svg">
<path d="M2 6C2 3.79086 3.79086 2 6 2H26C28.2091 2 30 3.79086 30 6V26C30 28.2091 28.2091 30 26 30H6C3.79086 30 2 28.2091 2 26V6Z" fill="#F70A8D"/>
<path d="M8.33 12.67C8.33 8.43398 11.764 5 16 5C20.236 5 23.67 8.43398 23.67 12.67C23.67 16.5671 20.7635 19.7854 17 20.2754V21.7H19.33C19.8823 21.7 20.33 22.1477 20.33 22.7C20.33 23.2522 19.8823 23.7 19.33 23.7H17V26C17 26.5523 16.5523 27 16 27C15.4477 27 15 26.5523 15 26V23.7H12.67C12.1177 23.7 11.67 23.2522 11.67 22.7C11.67 22.1477 12.1177 21.7 12.67 21.7H15V20.2754C11.2365 19.7854 8.33 16.5671 8.33 12.67ZM16 7C12.8685 7 10.33 9.53855 10.33 12.67C10.33 15.8015 12.8685 18.34 16 18.34C19.1315 18.34 21.67 15.8015 21.67 12.67C21.67 9.53855 19.1315 7 16 7Z" fill="white"/>
</svg>

<svg xmlns="http://www.w3.org/2000/svg" width="32" height="32" fill="none"><path fill="#F70A8D" d="M2 6a4 4 0 0 1 4-4h20a4 4 0 0 1 4 4v20a4 4 0 0 1-4 4H6a4 4 0 0 1-4-4V6Z"/><path fill="#fff" d="M8.33 12.67A7.67 7.67 0 1 1 17 20.275V21.7h2.33a1 1 0 1 1 0 2H17V26a1 1 0 1 1-2 0v-2.3h-2.33a1 1 0 0 1 0-2H15v-1.425a7.671 7.671 0 0 1-6.67-7.605ZM16 7a5.67 5.67 0 1 0 0 11.34A5.67 5.67 0 0 0 16 7Z"/></svg>
